**kern	**kern	**kern
*staff3	*staff2	*staff1
*tb32	*tb32	*tb32
*clefF4	*clefF4	*clefG2
*k[f#c#g#]	*k[f#c#g#]	*k[f#c#g#]
*M2/4	*M2/4	*M2/4
*A:	*A:	*A:
(8G#J	8r	(16eLL
.	.	16bJJ
=124	=124	=124
4A	2r	16eLL
.	.	16cc#
.	.	16f#
.	.	16cc#JJ)
4B	.	(16f#LL
.	.	16dd#
.	.	16a
.	.	16dd#JJ)
=125	=125	=125
4E')	2r	(16aLL
.	.	16ee
.	.	16g#
.	.	16eeJJ
8r	.	16bLL
.	.	16eeJ)
8G#'	.	24eL
.	.	24cc#
.	.	24bJJ
=126	=126	=126
8A'	2r	24eLL
.	.	24dd
.	.	24cc#J
8r	.	24f#L
.	.	24dd
.	.	24cc#JJ
8B'	.	24f#LL
.	.	24ee
.	.	24dd#J
8r	.	24aL
.	.	24ee
.	.	24dd#JJ
=127	=127	=127
4E'	2r	24aLL
.	.	24ff#
.	.	24eeJ
.	.	24g#L
.	.	24ff#
.	.	24eeJJ
8r	.	24bLL
.	.	24ff#
.	.	24ee
(8GG#	.	(16e
.	.	16bJJ
=128	=128	=128
4AA	2r	16eLL
.	.	16cc#
.	.	16f#
.	.	16cc#JJ)
4BB	.	(16f#LL
.	.	16dd#
.	.	16a
.	.	16dd#JJ)
=129	=129	=129
4EE')	2r	(16aLL
.	.	16ee
.	.	16g#
.	.	16eeJJ
8r	.	16bLL
.	.	16eeJ)
8G#	.	24eL
.	.	24cc#
.	.	24bJJ
=130	=130	=130
8A	2r	24eLL
.	.	24dd
.	.	24cc#J
8r	.	24f#L
.	.	24dd
.	.	24cc#JJ
8B	.	24f#LL
.	.	24ee
.	.	24dd#J
8r	.	24aL
.	.	24ee
.	.	24dd#JJ
=131	=131	=131
8E	2r	24aLL
.	.	24ff#
.	.	24eeJ
8r	.	24g#L
.	.	24ff#
.	.	24eeJJ
8D#	.	24bLL
.	.	24gg#
.	.	24ff#J
8r	.	24bL
.	.	24gg#
.	.	24ff#JJ
=132	=132	=132
8E	2r	24bLL
.	.	24aa
.	.	24gg#J
8r	.	24bL
.	.	24aa
.	.	24gg#JJ
8BB	.	24dd#LL
.	.	24bb
.	.	24aaJ
8r	.	24dd#L
.	.	24bb
.	.	24aaJJ
=133	=133	=133
2r;	2r;	2r;
=134	=134	=134
2r	2r	([4ee
.	.	16eeLL]
.	.	16dd#
.	.	16ee
.	.	16dd#JJ
*-	*-	*-
